X: 33245
T: Pull The Knife And Stick It Again
R: jig
M: 6/8
K: Edorian
D|:~E3 GFE|DED DEF|~E3 GFE|ABA AGF|
~E3 GFE|DED DEF|GFE FED|1 DFD E2D:|2 DFD E2B||
|:edB BAF|~E3 D2e|edB BAF|EFA def|
edB BAF|~E3 DEF|GFE FED|1 DFD E2B:|2 DFD E2D||

